X:1
T:Fugue sur l'hymne de la Vierge, Ave Maris Stella
T:Fugue sur l'hymne de la Vierge, Ave Maris Stella
T:Premier livre d'Orgue Orgue -- Organ 
T:Jean-François Dandrieu (1681-1738)
T:by Mutopia-2013/03/22-566 - ublic domain
C:Jean-François Dandrieu (1681-1738)
Z:by Mutopia-2013/03/22-566 - ublic domain
%%score { ( 1 3 ) | ( 2 4 ) }
L:1/8
Q:1/4=100
M:4/4
K:C
V:1 treble nm="Organo" snm="Org."
V:3 treble 
V:2 bass 
V:4 bass 
V:1
"^Majestueusement" z8 | z8 | z8 | z8 | z8 | z4 A,4 | D6 D2 | E2 C2 D2 E2 | MF6 E2- | E2 D4 P^C2 | %10
 D6 E2 | MF2 A2 G2 F2 | PE2 G2 F2 E2 | D2 F2 E2 D2 | P^C6 E2 | z4 D4 | A6 A2 | B2 G2 A2 B2 | %18
 Mc6 B2- | B2 A4 P^G2 | A6 G2 | z2 A2 d2 c2 | B2 ^c2 d2 e2 | P^c2 d4 c2 | d4 A4 | _B8 | A4 G4 | %27
 z4 z2 A2- | A2 G4 P^F2 | G4 z4 | z8 | z8 | z8 | z8 | z8 | z2 D2 G4- | G4 PF2 E2 | z4 A4 | d6 d2 | %39
 e2 ^c2 d2 e2 | Mf2 B2 ^c2 d2- | d3 ^c Pc3 d | [Ad]8 |] %43
V:2
 z4 D,4 | A,6 A,2 | B,2 G,2 A,2 B,2 | MC6 B,2- | B,2 A,4 P^G,2 | A,2 G,2 F,2 E,2 | MF,2 D,2 _B,4- | %7
 B,6 _B,2 | A,2 D2 G,2 C2 | F,2 _B,2 E,2 A,2 | PF,2 E,2 D,2 A,2 | D4 B,4 | C4 A,4 | M_B,4 G,4 | %14
 A,2 _B,2 A,2 G,2 | F,2 E,2 F,2 D,2 | P^C,2 A,,2 D,2 D,,2 | G,,6 G,2 | A,2 C2 ^F,2 ^G,2 | A,4 E,4 | %20
 A,,6 A,,2 | D,6 D,2 | G,2 E,2 F,2 G,2 | A,8- | A,2 G,2 F,4 | C8- | C4 B,2 ^C2 | A,4 G,4 | %28
 ^F,2 _B,2 A,4 | G,2 z2 z4 | z4 D,4 | G,6 G,2 | A,2 F,2 G,2 A,2 | _B,6 A,2- | A,2 G,4 P^F,2 | %35
 G,2 F,2 E,2 D,2 | ^C,8 | A,8- | A,4 B,4 | ^C2 E2 F2 C2 | D4 E2 F2- | F3 E PE4 | D8 |] %43
V:3
 x8 | x8 | x8 | x8 | x8 | x8 | x8 | x8 | x8 | x8 | x8 | x8 | x8 | x8 | x8 | A,8- | A,2 E2 F4- | %17
 F8 | z2 E2 D4 | C4 B,2 E2 | PC2 B,2 A,4 | P^F8 | G4 A2 _B2 | E2 F2 E4 | F2 E2 D4 | G8 | %26
 F2 E2 D2 E2 | F4 E4 | D4 C4 | _B,4 G,4 | D8- | D4 C4- | C2 A,2 _B,2 C2 | MD6 C2- | %34
 C2 _B,2 A,2 D2 | _B,6 B,2 | A,8 | F8- | F8 | E2 A6- | A2 ^G2 A4 | _B4 A4 | ^F8 |] %43
V:4
 x8 | x8 | x8 | x8 | x8 | x8 | x8 | x8 | x8 | x8 | x8 | x8 | x8 | x8 | x8 | x8 | x8 | x8 | x8 | %19
 x8 | x8 | x8 | x8 | z4 A,,4 | D,6 D,2 | E,2 C,2 D,2 E,2 | MF,6 E,2- | E,2 D,4 P^C,2 | D,8 | %29
 G,,2 ^F,,2 G,,2 A,,2 | M_B,,2 A,,2 B,,2 G,,2 | _E,2 D,2 E,2 C,2 | F,2 _E,2 D,2 C,2 | _B,,4 _E,4 | %34
 D,8 | x8 | x8 | D,6 E,2 | F,4 D,4 | A,8- | A,8 | G,4 A,4 | D,8 |] %43

